images/elem_earth_or_air.svg

<svg height="560" viewBox="0 0 560 560" width="560" xmlns="http://www.w3.org/2000/svg"><path d="m280 418.41v-2.24c-24.79-1.97-45.23-11.41-59.99-16.64-1.5 18 4.5 41.92 9.5 58.42s-27 21.08-31 18.08-18.61-83.75 18.5-133c15.72-20.86 38.9-40.84 62.99-59.85v-27.75c-7.87 4.65-16.34 9.51-25.49 14.6-68.44 38.11-80.63 85.6-82.66 104.82-.42 4-4.89 6.18-8.27 3.99-24.28-15.78-85.57-80.68-11.57-162.81 37.73-41.87 81.41-50.73 127.99-57.28v-17.15-12.59-113.01c-145.8 0-264 118.2-264 264s118.2 264 264 264v-113z" fill="#85a93d"/><path d="m544 280c0-145.8-118.2-264-264-264v113.01 9.7c16.32.44 33.65 5.81 48.13 18.2 34.5 29.5 16.17 87.08-18.08 104.83-9.64 4.99-20.08 7.78-30.05 8.43v34.27c49.76-16.88 62.96-49.51 118.38-76.37 37.95-18.39 87.5-5.16 101 31.84s-21.67 62.5-49.5 61c-22.97-1.24-38.49-14.36-41.5-25.02-3.33-11.82 1.33-27.15 15-31.48-4 18 5.79 37.68 26 36.5 20-1.17 37.67-26.23 19-45-18.69-18.81-42-15.17-56-6.5-14.93 9.24-50 44-80 58.5-14.55 7.03-32.53 14.38-52.38 18.44v61.97c16.97 5.8 32.76 9.15 46.08 8.35 42.05-2.51 62.53-18.32 60.3-37.76-1.75-15.25-18.75-25.25-31.75-20.25s-18.75 16.75-17.75 27.75c-11-8.5-7-25-3.5-29.5s22.69-30.67 55.5-8c27.5 19 15.88 56.01 0 70-10.5 9.25-42 32.5-101.5 17.5-2.45-.62-4.91-1.31-7.38-2.06v4.06 12.59 113c145.8 0 264-118.2 264-264z" fill="#93b7bb"/><path d="m282.88 219.91c-.7-1.23-1.66-2.52-2.88-3.89v37.17c10.1-.09 21.43-4.71 31.05-16.12 21.5-25.5 16.83-60.16-18.67-72.66-4.36-1.54-8.47-2.42-12.38-2.76v44.61c2.63 3.97 3.59 8.52 2.88 13.65z" fill="#93b7bb"/><g fill="#fff"><path d="m560 280c0 37.79-7.41 74.46-22.01 108.99-14.1 33.35-34.29 63.29-60 89s-55.65 45.9-89 60c-34.53 14.6-71.2 22.01-108.99 22.01s-74.46-7.41-108.99-22.01c-33.35-14.1-63.29-34.29-89-60s-45.9-55.65-60-89c-14.61-34.53-22.01-71.2-22.01-108.99s7.4-74.46 22.01-108.99c14.1-33.35 34.29-63.29 60-89s55.65-45.9 89-60c34.53-14.61 71.2-22.01 108.99-22.01s74.46 7.4 108.99 22.01c33.35 14.1 63.29 34.29 89 60s45.9 55.65 60 89c14.6 34.53 22.01 71.2 22.01 108.99zm-16 0c0-145.8-118.2-264-264-264s-264 118.2-264 264 118.2 264 264 264 264-118.2 264-264z" fill-rule="evenodd"/><path d="m171.85 374.85c-.42 4-4.89 6.18-8.27 3.99-24.28-15.78-85.57-80.68-11.57-162.81 37.73-41.87 81.41-50.73 127.99-57.28v-20.04c16.32.44 33.65 5.81 48.13 18.2 34.5 29.5 16.17 87.08-18.08 104.83-9.64 4.99-20.08 7.78-30.05 8.43v-14.74c-7.87 4.65-16.34 9.51-25.49 14.6-68.44 38.11-80.63 85.6-82.66 104.82zm108.15-121.66c10.1-.09 21.43-4.71 31.05-16.12 21.5-25.5 16.83-60.16-18.67-72.66-4.36-1.54-8.47-2.42-12.38-2.76v44.61c2.63 3.97 3.59 8.52 2.88 13.65-.7-1.23-1.66-2.52-2.88-3.89z" fill-rule="evenodd"/><path d="m499.38 259.91c-13.5-37-63.05-50.23-101-31.84-55.42 26.86-68.62 59.49-118.38 76.37v-21.26c-24.09 19.01-47.26 38.99-62.99 59.85-37.11 49.25-22.5 130-18.5 133s36-1.58 31-18.08-11-40.42-9.5-58.42c14.76 5.23 35.2 14.67 59.99 16.64v-1.82c2.47.75 4.93 1.44 7.38 2.06 59.5 15 91-8.25 101.5-17.5 15.88-13.99 27.5-51 0-70-32.81-22.67-52 3.5-55.5 8s-7.5 21 3.5 29.5c-1-11 4.75-22.75 17.75-27.75s30 5 31.75 20.25c2.23 19.44-18.25 35.25-60.3 37.76-13.32.8-29.11-2.55-46.08-8.35v-61.97c19.85-4.06 37.83-11.41 52.38-18.44 30-14.5 65.07-49.26 80-58.5 14-8.67 37.31-12.31 56 6.5 18.67 18.77 1 43.83-19 45-20.21 1.18-30-18.5-26-36.5-13.67 4.33-18.33 19.66-15 31.48 3.01 10.66 18.53 23.78 41.5 25.02 27.83 1.5 63-24 49.5-61z"/></g></svg>

<svg version="1.2" baseProfile="tiny-ps" xmlns="http://www.w3.org/2000/svg" viewBox="0 0 560 560" width="560" height="560">
	<title>Layer 1</title>
	<style>
		tspan { white-space:pre }
		.shp0 { fill: #85a93d } 
		.shp1 { fill: #93b7bb } 
		.shp2 { fill: #ffffff } 
	</style>
	<g id="Layer 1">
		<g id="&lt;Group&gt;">
			<path id="&lt;Path&gt;" class="shp0" d="M280 418.41L280 416.17C255.21 414.2 234.77 404.76 220.01 399.53C218.51 417.53 224.51 441.45 229.51 457.95C234.51 474.45 202.51 479.03 198.51 476.03C194.51 473.03 179.9 392.28 217.01 343.03C232.73 322.17 255.91 302.19 280 283.18L280 255.43C272.13 260.08 263.66 264.94 254.51 270.03C186.07 308.14 173.88 355.63 171.85 374.85C171.43 378.85 166.96 381.03 163.58 378.84C139.3 363.06 78.01 298.16 152.01 216.03C189.74 174.16 233.42 165.3 280 158.75L280 141.6L280 129.01L280 16C134.2 16 16 134.2 16 280C16 425.8 134.2 544 280 544L280 431L280 418.41Z" />
			<g id="&lt;Group&gt;">
				<g id="&lt;Group&gt;">
					<path id="&lt;Path&gt;" class="shp1" d="M544 280C544 134.2 425.8 16 280 16L280 129.01L280 138.71C296.32 139.15 313.65 144.52 328.13 156.91C362.63 186.41 344.3 243.99 310.05 261.74C300.41 266.73 289.97 269.52 280 270.17L280 304.44C329.76 287.56 342.96 254.93 398.38 228.07C436.33 209.68 485.88 222.91 499.38 259.91C512.88 296.91 477.71 322.41 449.88 320.91C426.91 319.67 411.39 306.55 408.38 295.89C405.05 284.07 409.71 268.74 423.38 264.41C419.38 282.41 429.17 302.09 449.38 300.91C469.38 299.74 487.05 274.68 468.38 255.91C449.69 237.1 426.38 240.74 412.38 249.41C397.45 258.65 362.38 293.41 332.38 307.91C317.83 314.94 299.85 322.29 280 326.35L280 388.32C296.97 394.12 312.76 397.47 326.08 396.67C368.13 394.16 388.61 378.35 386.38 358.91C384.63 343.66 367.63 333.66 354.63 338.66C341.63 343.66 335.88 355.41 336.88 366.41C325.88 357.91 329.88 341.41 333.38 336.91C336.88 332.41 356.07 306.24 388.88 328.91C416.38 347.91 404.76 384.92 388.88 398.91C378.38 408.16 346.88 431.41 287.38 416.41C284.93 415.79 282.47 415.1 280 414.35L280 418.41L280 431L280 544C425.8 544 544 425.8 544 280Z" />
					<path id="&lt;Path&gt;" class="shp1" d="M282.88 219.91C282.18 218.68 281.22 217.39 280 216.02L280 253.19C290.1 253.1 301.43 248.48 311.05 237.07C332.55 211.57 327.88 176.91 292.38 164.41C288.02 162.87 283.91 161.99 280 161.65L280 206.26C282.63 210.23 283.59 214.78 282.88 219.91Z" />
					<path id="&lt;Compound Path&gt;" fill-rule="evenodd" class="shp2" d="M560 280C560 317.79 552.59 354.46 537.99 388.99C523.89 422.34 503.7 452.28 477.99 477.99C452.28 503.7 422.34 523.89 388.99 537.99C354.46 552.59 317.79 560 280 560C242.21 560 205.54 552.59 171.01 537.99C137.66 523.89 107.72 503.7 82.01 477.99C56.3 452.28 36.11 422.34 22.01 388.99C7.4 354.46 0 317.79 0 280C0 242.21 7.4 205.54 22.01 171.01C36.11 137.66 56.3 107.72 82.01 82.01C107.72 56.3 137.66 36.11 171.01 22.01C205.54 7.4 242.21 0 280 0C317.79 0 354.46 7.4 388.99 22.01C422.34 36.11 452.28 56.3 477.99 82.01C503.7 107.72 523.89 137.66 537.99 171.01C552.59 205.54 560 242.21 560 280ZM544 280C544 134.2 425.8 16 280 16C134.2 16 16 134.2 16 280C16 425.8 134.2 544 280 544C425.8 544 544 425.8 544 280Z" />
					<g id="&lt;Group&gt;">
						<path id="&lt;Compound Path&gt;" fill-rule="evenodd" class="shp2" d="M171.85 374.85C171.43 378.85 166.96 381.03 163.58 378.84C139.3 363.06 78.01 298.16 152.01 216.03C189.74 174.16 233.42 165.3 280 158.75L280 138.71C296.32 139.15 313.65 144.52 328.13 156.91C362.63 186.41 344.3 243.99 310.05 261.74C300.41 266.73 289.97 269.52 280 270.17L280 255.43C272.13 260.08 263.66 264.94 254.51 270.03C186.07 308.14 173.88 355.63 171.85 374.85ZM280 253.19C290.1 253.1 301.43 248.48 311.05 237.07C332.55 211.57 327.88 176.91 292.38 164.41C288.02 162.87 283.91 161.99 280 161.65L280 206.26C282.63 210.23 283.59 214.78 282.88 219.91C282.18 218.68 281.22 217.39 280 216.02L280 253.19Z" />
						<path id="&lt;Path&gt;" class="shp2" d="M499.38 259.91C485.88 222.91 436.33 209.68 398.38 228.07C342.96 254.93 329.76 287.56 280 304.44L280 283.18C255.91 302.19 232.74 322.17 217.01 343.03C179.9 392.28 194.51 473.03 198.51 476.03C202.51 479.03 234.51 474.45 229.51 457.95C224.51 441.45 218.51 417.53 220.01 399.53C234.77 404.76 255.21 414.2 280 416.17L280 414.35C282.47 415.1 284.93 415.79 287.38 416.41C346.88 431.41 378.38 408.16 388.88 398.91C404.76 384.92 416.38 347.91 388.88 328.91C356.07 306.24 336.88 332.41 333.38 336.91C329.88 341.41 325.88 357.91 336.88 366.41C335.88 355.41 341.63 343.66 354.63 338.66C367.63 333.66 384.63 343.66 386.38 358.91C388.61 378.35 368.13 394.16 326.08 396.67C312.76 397.47 296.97 394.12 280 388.32L280 326.35C299.85 322.29 317.83 314.94 332.38 307.91C362.38 293.41 397.45 258.65 412.38 249.41C426.38 240.74 449.69 237.1 468.38 255.91C487.05 274.68 469.38 299.74 449.38 300.91C429.17 302.09 419.38 282.41 423.38 264.41C409.71 268.74 405.05 284.07 408.38 295.89C411.39 306.55 426.91 319.67 449.88 320.91C477.71 322.41 512.88 296.91 499.38 259.91Z" />
					</g>
				</g>
			</g>
		</g>
	</g>
</svg>
